app/public/img/zoomIn.svg

<?xml version="1.0" encoding="UTF-8" standalone="no"?>
<svg
   xmlns:dc="http://purl.org/dc/elements/1.1/"
   xmlns:cc="http://creativecommons.org/ns#"
   xmlns:rdf="http://www.w3.org/1999/02/22-rdf-syntax-ns#"
   xmlns:svg="http://www.w3.org/2000/svg"
   xmlns="http://www.w3.org/2000/svg"
   xmlns:sodipodi="http://sodipodi.sourceforge.net/DTD/sodipodi-0.dtd"
   xmlns:inkscape="http://www.inkscape.org/namespaces/inkscape"
   sodipodi:docname="zoomIn.svg"
   inkscape:version="1.1-dev (bc69992, 2020-04-15)"
   version="1.1"
   id="svg23607"
   height="44"
   width="44">
  <defs
     id="defs23609" />
  <sodipodi:namedview
     width="44px"
     inkscape:window-maximized="0"
     inkscape:window-y="23"
     inkscape:window-x="171"
     inkscape:window-height="1005"
     inkscape:window-width="1509"
     fit-margin-bottom="0"
     fit-margin-right="0"
     fit-margin-left="0"
     fit-margin-top="0"
     showgrid="false"
     inkscape:current-layer="layer1"
     inkscape:document-units="px"
     inkscape:cy="18.0646"
     inkscape:cx="18.491878"
     inkscape:zoom="10.531884"
     inkscape:pageshadow="2"
     inkscape:pageopacity="0"
     borderopacity="1.0"
     bordercolor="#666666"
     pagecolor="#2a2a2a"
     id="base" />
  <metadata
     id="metadata23612">
    <rdf:RDF>
      <cc:Work
         rdf:about="">
        <dc:format>image/svg+xml</dc:format>
        <dc:type
           rdf:resource="http://purl.org/dc/dcmitype/StillImage" />
        <dc:title></dc:title>
      </cc:Work>
    </rdf:RDF>
  </metadata>
  <g
     transform="translate(-356.344,-513.70618)"
     id="layer1"
     inkscape:groupmode="layer"
     inkscape:label="Layer 1">
    <g
       transform="matrix(1.9984863,0,0,1.9984863,-371.08886,-528.21284)"
       id="g988">
      <path
         d="m 377.3077,530.43908 v 0.76923 q 0,0.15628 -0.1142,0.27043 -0.11417,0.11415 -0.27043,0.11415 h -2.6923 v 2.69233 q 0,0.15623 -0.11418,0.27044 -0.11419,0.11414 -0.27043,0.11414 h -0.76923 q -0.15626,0 -0.27045,-0.11414 -0.11418,-0.11415 -0.11418,-0.27044 v -2.69233 H 370 q -0.15626,0 -0.27043,-0.11415 -0.11419,-0.11414 -0.11419,-0.27043 v -0.76923 q 0,-0.15623 0.11419,-0.27044 0.11417,-0.11414 0.27043,-0.11414 h 2.6923 v -2.69227 q 0,-0.15627 0.11418,-0.27048 0.11419,-0.11415 0.27045,-0.11415 h 0.76923 q 0.15624,0 0.27043,0.11415 0.11418,0.11414 0.11418,0.27048 v 2.69227 h 2.6923 q 0.15626,0 0.27045,0.11414 0.11418,0.11415 0.11418,0.27044 z"
         id="path4143"
         style="fill:#ffffff;fill-opacity:1" />
      <path
         d="m 17.117188,8.65625 c -1.14584,0 -2.241437,0.2213223 -3.28711,0.6660156 C 12.784411,9.767019 11.882213,10.369746 11.125,11.126953 10.367787,11.884133 9.7669723,12.784371 9.3222656,13.830078 8.8775523,14.875751 8.65625,15.971374 8.65625,17.117188 c 0,1.145839 0.2213023,2.241442 0.6660156,3.287109 0.4447067,1.04568 1.0455214,1.947858 1.8027344,2.705078 0.757213,0.7572 1.659411,1.358048 2.705078,1.802734 1.045673,0.444727 2.14127,0.666016 3.28711,0.666016 1.762826,0 3.362588,-0.496648 4.796874,-1.490234 l 4.121094,4.111328 c 0.28846,0.30446 0.649338,0.457031 1.082032,0.457031 0.42468,0 0.78741,-0.150679 1.08789,-0.451172 0.30048,-0.300493 0.451172,-0.663237 0.451172,-1.08789 0,-0.424667 -0.148846,-0.785552 -0.445312,-1.082032 l -4.123047,-4.121094 c 0.993593,-1.43428 1.490234,-3.034061 1.490234,-4.796874 0,-1.145814 -0.221296,-2.241437 -0.666016,-3.28711 C 24.467403,12.784371 23.866588,11.884133 23.109375,11.126953 22.352168,10.369746 21.44997,9.767019 20.404297,9.3222656 19.358624,8.8775723 18.263021,8.65625 17.117188,8.65625 Z m 0,1.460938 c 1.927079,0 3.575525,0.684914 4.945312,2.054687 1.369807,1.369793 2.054688,3.018219 2.054688,4.945313 0,1.927053 -0.684881,3.575532 -2.054688,4.945312 -1.369787,1.369827 -3.018232,2.054688 -4.945312,2.054688 -1.927087,-10e-7 -3.575533,-0.684861 -4.945313,-2.054688 -1.369807,-1.36978 -2.054687,-3.018259 -2.054687,-4.945312 0,-1.927094 0.68488,-3.57552 2.054687,-4.945313 1.36978,-1.369773 3.018226,-2.054687 4.945313,-2.054687 z"
         transform="translate(356.344,513.70618)"
         id="path4141"
         style="fill:#ffffff;fill-opacity:1" />
    </g>
  </g>
</svg>

<?xml version="1.0" encoding="UTF-8" standalone="no"?>
<!-- Created with Inkscape (http://www.inkscape.org/) -->

<svg
   xmlns:dc="http://purl.org/dc/elements/1.1/"
   xmlns:cc="http://creativecommons.org/ns#"
   xmlns:rdf="http://www.w3.org/1999/02/22-rdf-syntax-ns#"
   xmlns:svg="http://www.w3.org/2000/svg"
   xmlns="http://www.w3.org/2000/svg"
   xmlns:xlink="http://www.w3.org/1999/xlink"
   xmlns:sodipodi="http://sodipodi.sourceforge.net/DTD/sodipodi-0.dtd"
   xmlns:inkscape="http://www.inkscape.org/namespaces/inkscape"
   width="37.312"
   height="37.312"
   id="svg23607"
   version="1.1"
   inkscape:version="0.91 r13725"
   sodipodi:docname="plus.svg">
  <defs
     id="defs23609">
    <linearGradient
       gradientTransform="translate(687.69107,362.74494)"
       y2="112.46646"
       x2="-312.36646"
       y1="184.71365"
       x1="-313.01569"
       gradientUnits="userSpaceOnUse"
       id="linearGradient22779"
       xlink:href="#linearGradient22494-7"
       inkscape:collect="always" />
    <linearGradient
       inkscape:collect="always"
       id="linearGradient22494-7">
      <stop
         style="stop-color:#ffffff;stop-opacity:1;"
         offset="0"
         id="stop22496-54" />
      <stop
         style="stop-color:#ffffff;stop-opacity:0;"
         offset="1"
         id="stop22498-4" />
    </linearGradient>
  </defs>
  <sodipodi:namedview
     id="base"
     pagecolor="#ffffff"
     bordercolor="#666666"
     borderopacity="1.0"
     inkscape:pageopacity="0.0"
     inkscape:pageshadow="2"
     inkscape:zoom="21.063767"
     inkscape:cx="13.056003"
     inkscape:cy="22.52724"
     inkscape:document-units="px"
     inkscape:current-layer="layer1"
     showgrid="false"
     fit-margin-top="0"
     fit-margin-left="0"
     fit-margin-right="0"
     fit-margin-bottom="0"
     inkscape:window-width="1509"
     inkscape:window-height="1017"
     inkscape:window-x="1966"
     inkscape:window-y="43"
     inkscape:window-maximized="0" />
  <metadata
     id="metadata23612">
    <rdf:RDF>
      <cc:Work
         rdf:about="">
        <dc:format>image/svg+xml</dc:format>
        <dc:type
           rdf:resource="http://purl.org/dc/dcmitype/StillImage" />
        <dc:title />
      </cc:Work>
    </rdf:RDF>
  </metadata>
  <g
     inkscape:label="Layer 1"
     inkscape:groupmode="layer"
     id="layer1"
     transform="translate(-356.344,-513.70618)">
    <path
       style="fill:url(#linearGradient22779);fill-opacity:1;stroke:none;stroke-miterlimit:10"
       inkscape:connector-curvature="0"
       id="path21406-9"
       d="m 375,513.70618 c -10.305,0 -18.656,8.353 -18.656,18.656 0,10.303 8.352,18.656 18.656,18.656 10.303,0 18.656,-8.353 18.656,-18.656 0,-10.303 -8.354,-18.656 -18.656,-18.656"
       stroke-miterlimit="10" />
    <path
       d="m 377.3077,530.43908 0,0.76923 q 0,0.15628 -0.1142,0.27043 -0.11417,0.11415 -0.27043,0.11415 l -2.6923,0 0,2.69233 q 0,0.15623 -0.11418,0.27044 -0.11419,0.11414 -0.27043,0.11414 l -0.76923,0 q -0.15626,0 -0.27045,-0.11414 -0.11418,-0.11415 -0.11418,-0.27044 l 0,-2.69233 -2.6923,0 q -0.15626,0 -0.27043,-0.11415 -0.11419,-0.11414 -0.11419,-0.27043 l 0,-0.76923 q 0,-0.15623 0.11419,-0.27044 0.11417,-0.11414 0.27043,-0.11414 l 2.6923,0 0,-2.69227 q 0,-0.15627 0.11418,-0.27048 0.11419,-0.11415 0.27045,-0.11415 l 0.76923,0 q 0.15624,0 0.27043,0.11415 0.11418,0.11414 0.11418,0.27048 l 0,2.69227 2.6923,0 q 0.15626,0 0.27045,0.11414 0.11418,0.11415 0.11418,0.27044 z"
       id="path4143" />
    <path
       d="M 17.117188 8.65625 C 15.971348 8.65625 14.875751 8.8775723 13.830078 9.3222656 C 12.784411 9.767019 11.882213 10.369746 11.125 11.126953 C 10.367787 11.884133 9.7669723 12.784371 9.3222656 13.830078 C 8.8775523 14.875751 8.65625 15.971374 8.65625 17.117188 C 8.65625 18.263027 8.8775523 19.35863 9.3222656 20.404297 C 9.7669723 21.449977 10.367787 22.352155 11.125 23.109375 C 11.882213 23.866575 12.784411 24.467423 13.830078 24.912109 C 14.875751 25.356836 15.971348 25.578125 17.117188 25.578125 C 18.880014 25.578125 20.479776 25.081477 21.914062 24.087891 L 26.035156 28.199219 C 26.323616 28.503679 26.684494 28.65625 27.117188 28.65625 C 27.541868 28.65625 27.904598 28.505571 28.205078 28.205078 C 28.505558 27.904585 28.65625 27.541841 28.65625 27.117188 C 28.65625 26.692521 28.507404 26.331636 28.210938 26.035156 L 24.087891 21.914062 C 25.081484 20.479782 25.578125 18.880001 25.578125 17.117188 C 25.578125 15.971374 25.356829 14.875751 24.912109 13.830078 C 24.467403 12.784371 23.866588 11.884133 23.109375 11.126953 C 22.352168 10.369746 21.44997 9.767019 20.404297 9.3222656 C 19.358624 8.8775723 18.263021 8.65625 17.117188 8.65625 z M 17.117188 10.117188 C 19.044267 10.117188 20.692713 10.802102 22.0625 12.171875 C 23.432307 13.541668 24.117188 15.190094 24.117188 17.117188 C 24.117188 19.044241 23.432307 20.69272 22.0625 22.0625 C 20.692713 23.432327 19.044268 24.117188 17.117188 24.117188 C 15.190101 24.117187 13.541655 23.432327 12.171875 22.0625 C 10.802068 20.69272 10.117188 19.044241 10.117188 17.117188 C 10.117188 15.190094 10.802068 13.541668 12.171875 12.171875 C 13.541655 10.802102 15.190101 10.117188 17.117188 10.117188 z "
       transform="translate(356.344,513.70618)"
       id="path4141" />
  </g>
</svg>
